!!!SOCIAL_FUNCTION:	songs used in treating the sick
!!!PDT:	1936
!!!OTL: No_27_My_Grandfather_the_Thunderbird.krn
!!!REG: Oklahoma and Montana
!!!LANG: Tone
!!!LING_GROUP: Algonquin
**kern
*staff1
=1-
*clefF4
*k[b-]
*M2/4
16.c\LL
32B-\JK
8B-\J
4B-\
=2
8B-\L
8A\J
8B-\L
16F\Jk
16r
=3
16.c\LL
32B-\JK
8B-\J
4B-\
=4
16.c\LL
32B-\JK
8B-\J
8B-\
8r
=5
16.B-\LL
32B-\JK
8B-\J
4B-\
=6
8B-\L
8A\J
8B-\L
8F\J
=7
16.F\LL
32F\JK
8F\J
4F\
=8
8F\L
8E-\J
8D/L
16C/Jk
16r
=9
16.F\LL
32F\JK
8F\J
4F\
=10
16.A\LL
32G\JK
8F\J
8F\
8r
=11
16.F\LL
32F\JK
8F\J
4F\
=12
8F\L
8E-\J
8D/L
8C/J
=13
16.C/LL
32C/JK
8C/J
4C/
=14
16.C/LL
32C/JK
8C/J
8GG/
8r
=15
16.C/LL
32C/JK
8C/J
4C/
=16
16.C/LL
32C/JK
8C/J
8AA/
8r
=17
16.C/LL
32AA/JK
8AA/J
4AA/
=18
16.AA/LL
32AA/JK
8AA/J
4AA/
=19
16.AA/LL
32AA/JK
8AA/J
4AA/
=20
2FF/
==
*-
